source/work/images/artifact_moodboards.svg

<svg xmlns="http://www.w3.org/2000/svg" width="64" height="64" viewBox="0 0 64 64"><style type="text/css">.frame{fill:#FFFFFF;} .content{opacity:0.5;fill:#FFFFFF;}</style><path class="frame" d="M22 37h-7.071c.042-.161.071-.326.071-.5 0-1.105-.895-2-2-2s-2 .895-2 2c0 .174.029.339.071.5h-7.071c-1.657 0-3 1.343-3 3v19c0 1.657 1.343 3 3 3h18c1.657 0 3-1.343 3-3v-19c0-1.657-1.343-3-3-3zm-9-1.5c.551 0 1 .449 1 1s-.449 1-1 1-1-.449-1-1 .449-1 1-1zm11 23.5c0 1.103-.897 2-2 2h-18c-1.103 0-2-.897-2-2v-19c0-1.103.897-2 2-2h7.69c.23.201.505.35.81.429v1.571h1v-1.571c.305-.079.58-.228.81-.429h7.69c1.103 0 2 .897 2 2v19zm36-47h-11.071c.042-.161.071-.326.071-.5 0-1.105-.895-2-2-2s-2 .895-2 2c0 .174.029.339.071.5h-8.071v-5c0-1.657-1.343-3-3-3h-13.071c.042-.161.071-.326.071-.5 0-1.105-.895-2-2-2s-2 .895-2 2c0 .174.029.339.071.5h-13.071c-1.657 0-3 1.343-3 3v23c0 1.657 1.343 3 3 3h27v4h-1c-1.657 0-3 1.343-3 3v19c0 1.657 1.343 3 3 3h18c1.657 0 3-1.343 3-3v-11h9c1.657 0 3-1.343 3-3v-30c0-1.657-1.343-3-3-3zm-13-1.5c.551 0 1 .449 1 1s-.449 1-1 1-1-.449-1-1 .449-1 1-1zm-28-8c.551 0 1 .449 1 1s-.449 1-1 1-1-.449-1-1 .449-1 1-1zm-15 29.5c-1.103 0-2-.897-2-2v-23c0-1.103.897-2 2-2h13.69c.23.201.505.35.81.429v1.571h1v-1.571c.305-.079.58-.228.81-.429h13.69c1.103 0 2 .897 2 2v5h-2c-1.657 0-3 1.343-3 3v17h-27zm46 27c0 1.103-.897 2-2 2h-18c-1.103 0-2-.897-2-2v-19c0-1.103.897-2 2-2h7.69c.23.201.505.35.81.429v1.571h1v-1.571c.305-.079.58-.228.81-.429h7.69c1.103 0 2 .897 2 2v19zm-12-22.5c0-.551.449-1 1-1s1 .449 1 1-.449 1-1 1-1-.449-1-1zm24 8.5c0 1.103-.897 2-2 2h-9v-7c0-1.657-1.343-3-3-3h-7.071c.042-.161.071-.326.071-.5 0-1.105-.895-2-2-2s-2 .895-2 2c0 .174.029.339.071.5h-5.071v-22c0-1.103.897-2 2-2h11.69c.23.201.505.35.81.429v1.571h1v-1.571c.305-.079.58-.228.81-.429h11.69c1.103 0 2 .897 2 2v30z"/><path class="content" d="M20 41h-14c-1.105 0-2 .895-2 2v14c0 1.105.895 2 2 2h14c1.105 0 2-.895 2-2v-14c0-1.105-.895-2-2-2zm-14 1h14l.244.049-7.244 7.244-7.244-7.244.244-.049zm-1 15v-14l.049-.244 7.244 7.244-7.244 7.244-.049-.244zm15 1h-14l-.244-.049 7.244-7.244 7.244 7.244-.244.049zm1-1l-.049.244-7.244-7.244 7.244-7.244.049.244v14zm25-16h-14c-1.105 0-2 .895-2 2v14c0 1.105.895 2 2 2h14c1.105 0 2-.895 2-2v-14c0-1.105-.895-2-2-2zm-14 1h14l.244.049-7.244 7.244-7.244-7.244.244-.049zm-1 15v-14l.049-.244 7.244 7.244-7.244 7.244-.049-.244zm15 1h-14l-.244-.049 7.244-7.244 7.244 7.244-.244.049zm1-1l-.049.244-7.244-7.244 7.244-7.244.049.244v14zm-41-27h25.5v-1h-25.5l-.109-.022 13.109-9.364 12.5 8.929v-1.229l-11.64-8.314 13.072-9.337c.038.106.068.218.068.337v2.5h1v-2.5c0-1.105-.895-2-2-2h-26c-1.105 0-2 .895-2 2v18c0 1.105.895 2 2 2zm0-21h26l.109.022-13.109 9.364-13.109-9.364.109-.022zm-1 1c0-.119.03-.231.068-.337l13.072 9.337-13.072 9.337c-.038-.106-.068-.218-.068-.337v-18zm53 6h-22c-1.105 0-2 .895-2 2v19.5h1v-19.5l.041-.202 11.29 12.702-6.222 7h1.337l5.554-6.248 11.281 12.691c-.091.027-.181.057-.281.057h-7.5v1h7.5c1.105 0 2-.895 2-2v-25c0-1.105-.895-2-2-2zm-22.281 1.057c.091-.027.181-.057.281-.057h22c.1 0 .19.03.281.057l-11.281 12.691-11.281-12.691zm23.281 25.943l-.041.202-11.29-12.702 11.29-12.702.041.202v25z"/></svg>

<?xml version="1.0" encoding="utf-8"?>
<!-- Generator: Adobe Illustrator 19.2.1, SVG Export Plug-In . SVG Version: 6.00 Build 0)  -->
<svg version="1.1" id="icons" xmlns="http://www.w3.org/2000/svg" xmlns:xlink="http://www.w3.org/1999/xlink" x="0px" y="0px"
	 width="64px" height="64px" viewBox="0 0 64 64" style="enable-background:new 0 0 64 64;" xml:space="preserve">
<style type="text/css">
	.frame{fill:#FFFFFF;}
	.content{opacity:0.5;fill:#FFFFFF;}
</style>
<path class="frame" d="M22,37h-7.071C14.971,36.839,15,36.674,15,36.5c0-1.105-0.895-2-2-2s-2,0.895-2,2
	c0,0.174,0.029,0.339,0.071,0.5H4c-1.657,0-3,1.343-3,3v19c0,1.657,1.343,3,3,3h18c1.657,0,3-1.343,3-3V40
	C25,38.343,23.657,37,22,37z M13,35.5c0.551,0,1,0.449,1,1s-0.449,1-1,1s-1-0.449-1-1S12.449,35.5,13,35.5z M24,59
	c0,1.103-0.897,2-2,2H4c-1.103,0-2-0.897-2-2V40c0-1.103,0.897-2,2-2h7.69c0.23,0.201,0.505,0.35,0.81,0.429V40h1v-1.571
	c0.305-0.079,0.58-0.228,0.81-0.429H22c1.103,0,2,0.897,2,2V59z M60,12H48.929C48.971,11.839,49,11.674,49,11.5c0-1.105-0.895-2-2-2
	s-2,0.895-2,2c0,0.174,0.029,0.339,0.071,0.5H37V7c0-1.657-1.343-3-3-3H20.929C20.971,3.839,21,3.674,21,3.5c0-1.105-0.895-2-2-2
	s-2,0.895-2,2c0,0.174,0.029,0.339,0.071,0.5H4C2.343,4,1,5.343,1,7v23c0,1.657,1.343,3,3,3h27v4h-1c-1.657,0-3,1.343-3,3v19
	c0,1.657,1.343,3,3,3h18c1.657,0,3-1.343,3-3V48h9c1.657,0,3-1.343,3-3V15C63,13.343,61.657,12,60,12z M47,10.5c0.551,0,1,0.449,1,1
	s-0.449,1-1,1s-1-0.449-1-1S46.449,10.5,47,10.5z M19,2.5c0.551,0,1,0.449,1,1s-0.449,1-1,1s-1-0.449-1-1S18.449,2.5,19,2.5z M4,32
	c-1.103,0-2-0.897-2-2V7c0-1.103,0.897-2,2-2h13.69c0.23,0.201,0.505,0.35,0.81,0.429V7h1V5.429C19.805,5.35,20.08,5.201,20.31,5H34
	c1.103,0,2,0.897,2,2v5h-2c-1.657,0-3,1.343-3,3v17H4z M50,59c0,1.103-0.897,2-2,2H30c-1.103,0-2-0.897-2-2V40c0-1.103,0.897-2,2-2
	h7.69c0.23,0.201,0.505,0.35,0.81,0.429V40h1v-1.571c0.305-0.079,0.58-0.228,0.81-0.429H48c1.103,0,2,0.897,2,2V59z M38,36.5
	c0-0.551,0.449-1,1-1s1,0.449,1,1s-0.449,1-1,1S38,37.051,38,36.5z M62,45c0,1.103-0.897,2-2,2h-9v-7c0-1.657-1.343-3-3-3h-7.071
	C40.971,36.839,41,36.674,41,36.5c0-1.105-0.895-2-2-2s-2,0.895-2,2c0,0.174,0.029,0.339,0.071,0.5H32V15c0-1.103,0.897-2,2-2h11.69
	c0.23,0.201,0.505,0.35,0.81,0.429V15h1v-1.571c0.305-0.079,0.58-0.228,0.81-0.429H60c1.103,0,2,0.897,2,2V45z"/>
<path class="content" d="M20,41H6c-1.105,0-2,0.895-2,2v14c0,1.105,0.895,2,2,2h14c1.105,0,2-0.895,2-2V43
	C22,41.895,21.105,41,20,41z M6,42h14c0.086,0,0.164,0.029,0.244,0.049L13,49.293l-7.244-7.244C5.836,42.029,5.914,42,6,42z M5,57
	V43c0-0.086,0.029-0.164,0.049-0.244L12.293,50l-7.244,7.244C5.029,57.164,5,57.086,5,57z M20,58H6
	c-0.086,0-0.164-0.029-0.244-0.049L13,50.707l7.244,7.244C20.164,57.971,20.086,58,20,58z M21,57c0,0.086-0.029,0.164-0.049,0.244
	L13.707,50l7.244-7.244C20.971,42.836,21,42.914,21,43V57z M46,41H32c-1.105,0-2,0.895-2,2v14c0,1.105,0.895,2,2,2h14
	c1.105,0,2-0.895,2-2V43C48,41.895,47.105,41,46,41z M32,42h14c0.086,0,0.164,0.029,0.244,0.049L39,49.293l-7.244-7.244
	C31.836,42.029,31.914,42,32,42z M31,57V43c0-0.086,0.029-0.164,0.049-0.244L38.293,50l-7.244,7.244C31.029,57.164,31,57.086,31,57z
	 M46,58H32c-0.086,0-0.164-0.029-0.244-0.049L39,50.707l7.244,7.244C46.164,57.971,46.086,58,46,58z M47,57
	c0,0.086-0.029,0.164-0.049,0.244L39.707,50l7.244-7.244C46.971,42.836,47,42.914,47,43V57z M6,30h25.5v-1H6
	c-0.039,0-0.072-0.018-0.109-0.022L19,19.614l12.5,8.929v-1.229L19.86,19l13.072-9.337C32.97,9.769,33,9.881,33,10v2.5h1V10
	c0-1.105-0.895-2-2-2H6c-1.105,0-2,0.895-2,2v18C4,29.105,4.895,30,6,30z M6,9h26c0.039,0,0.072,0.018,0.109,0.022L19,18.386
	L5.891,9.022C5.928,9.018,5.961,9,6,9z M5,10c0-0.119,0.03-0.231,0.068-0.337L18.14,19L5.068,28.337C5.03,28.231,5,28.119,5,28V10z
	 M58,16H36c-1.105,0-2,0.895-2,2v19.5h1V18c0-0.072,0.026-0.134,0.041-0.202L46.331,30.5l-6.222,7h1.337L47,31.252l11.281,12.691
	C58.19,43.97,58.1,44,58,44h-7.5v1H58c1.105,0,2-0.895,2-2V18C60,16.895,59.105,16,58,16z M35.719,17.057C35.81,17.03,35.9,17,36,17
	h22c0.1,0,0.19,0.03,0.281,0.057L47,29.748L35.719,17.057z M59,43c0,0.072-0.026,0.134-0.041,0.202L47.669,30.5l11.29-12.702
	C58.974,17.866,59,17.928,59,18V43z"/>
</svg>
